icons/masked.svg

<svg width="48" height="48" viewBox="0 0 48 48" fill="none" xmlns="http://www.w3.org/2000/svg">
<path d="M18 30H30V32H18V30Z" fill="black"/>
<path d="M30 34H18V36H30V34Z" fill="black"/>
<path d="M21.3023 22.4421C21.4323 22.0844 21.3934 21.6474 21.2857 21.2489C21.1734 20.8333 20.9666 20.3855 20.6753 19.9696C20.0947 19.1404 19.1318 18.3781 17.8311 18.3234C16.4842 18.2669 15.4778 19.1216 14.8578 20.0288C14.5433 20.4891 14.3095 20.987 14.1629 21.4451C14.0202 21.8907 13.9445 22.3469 13.9944 22.7115C14.0175 22.8807 14.1254 23.0264 14.2804 23.0978C14.4355 23.1693 14.6163 23.1567 14.76 23.0645C15.1593 22.8081 15.579 22.4572 15.9668 22.133C16.1435 21.9853 16.3135 21.8432 16.4719 21.7181C17.0342 21.274 17.4718 21.0209 17.8346 21.0032C18.1791 20.9863 18.5775 21.1839 19.0791 21.5592C19.2584 21.6934 19.4324 21.8354 19.6127 21.9825C19.6769 22.0349 19.7422 22.0882 19.8085 22.1417C20.0523 22.3386 20.3119 22.5409 20.5736 22.6991C20.7016 22.7766 20.8576 22.7926 20.9987 22.7429C21.1398 22.6931 21.2512 22.5827 21.3023 22.4421Z" fill="black"/>
<path d="M26.6133 22.4421C26.4833 22.0844 26.5221 21.6474 26.6298 21.2489C26.7422 20.8333 26.949 20.3855 27.2402 19.9696C27.8208 19.1404 28.7838 18.3781 30.0845 18.3234C31.4313 18.2669 32.4377 19.1216 33.0577 20.0288C33.3723 20.4891 33.606 20.987 33.7527 21.4451C33.8954 21.8907 33.971 22.3469 33.9212 22.7115C33.898 22.8807 33.7902 23.0264 33.6351 23.0978C33.4801 23.1693 33.2993 23.1567 33.1556 23.0645C32.7563 22.8081 32.3365 22.4572 31.9488 22.133C31.7722 21.9854 31.602 21.8432 31.4436 21.7181C30.8813 21.274 30.4438 21.0209 30.081 21.0032C29.7365 20.9863 29.3381 21.1839 28.8365 21.5592C28.6571 21.6935 28.483 21.8355 28.3026 21.9827C28.2384 22.0351 28.1733 22.0882 28.107 22.1417C27.8632 22.3386 27.6036 22.5409 27.342 22.6991C27.214 22.7766 27.058 22.7926 26.9169 22.7429C26.7758 22.6931 26.6644 22.5827 26.6133 22.4421Z" fill="black"/>
<path fill-rule="evenodd" clip-rule="evenodd" d="M41.8525 26.315C41.32 30.4628 39.3756 34.1688 36.5168 36.9356L36.5001 37C36.3134 37.1618 36.1255 37.3195 35.9364 37.4733C32.7596 40.2898 28.5795 42 24 42C19.9141 42 16.1462 40.6386 13.1251 38.3447C12.7455 38.0778 12.3704 37.7962 12.0001 37.5L11.961 37.3816C8.88039 34.6083 6.76247 30.7865 6.16921 26.4782C5.26731 25.8219 4.49244 24.8958 4.33544 23.6137C4.14081 22.0244 4.94717 20.2694 6.76881 18.3177C6.83035 18.2517 6.89872 18.196 6.97181 18.1505C9.39983 11.0808 16.1066 6 24 6C31.9841 6 38.7541 11.1982 41.1102 18.3948C42.8813 20.3157 43.664 22.0454 43.472 23.6137C43.3276 24.7929 42.6604 25.671 41.8525 26.315ZM14.3092 36.7324C20.6883 41.2001 28.3336 41.0554 34.641 35.9488C34.6681 35.9247 34.6951 35.9005 34.722 35.8762C35.1324 34.211 35.3214 32.9969 35.289 31.8387C35.2598 30.7966 35.0475 29.7077 34.5338 28.3075C30.4172 27.4455 27.1859 27.0117 23.9932 27.0002C20.8231 26.9888 17.6163 27.3935 13.5505 28.2785C13.1021 29.7664 12.9138 30.9227 12.918 32.0306C12.9227 33.2482 13.1602 34.5246 13.6952 36.2402C13.8957 36.4092 14.1004 36.5733 14.3092 36.7324ZM10.993 33.3197C10.8121 31.6979 10.9568 30.1853 11.444 28.3722C11.1778 28.3303 10.8683 28.2757 10.531 28.2057C9.90593 28.0758 9.16157 27.888 8.41081 27.6181C8.89306 29.7043 9.78331 31.6344 10.993 33.3197ZM35.5174 26.4716C26.5764 24.5531 21.3659 24.4618 12.4015 26.4847C12.3297 26.4766 12.2383 26.4656 12.1304 26.4512C11.8347 26.4117 11.4175 26.3471 10.9377 26.2475C10.0268 26.0583 8.94938 25.7545 8.05133 25.2908C8.01734 24.865 8.00001 24.4345 8.00001 24C8.00001 15.1634 15.1635 8 24 8C32.8366 8 40 15.1634 40 24C40 24.3978 39.9855 24.7922 39.957 25.1826L39.9446 25.1896C39.0119 25.7108 37.8453 26.0448 36.8697 26.2475C36.3899 26.3471 35.9727 26.4117 35.677 26.4512C35.6188 26.4589 35.5655 26.4657 35.5174 26.4716ZM36.6551 28.3239C37.2017 30.0169 37.3712 31.4375 37.2604 32.9562C38.3558 31.3375 39.1626 29.5076 39.607 27.5403C38.7859 27.8524 37.9598 28.0637 37.2764 28.2057C37.056 28.2515 36.8474 28.2906 36.6551 28.3239Z" fill="black"/>
</svg>

<svg
  xmlns="http://www.w3.org/2000/svg"
  width="24"
  height="24"
  viewBox="0 0 24 24"
  fill="none"
  stroke="currentColor"
  stroke-width="2"
  stroke-linecap="round"
  stroke-linejoin="round"
>
  <path d="M18 30h12v2H18z" />
  <path d="M30 34H18v2h12z" />
  <path d="M21.302 22.442c.13-.358.091-.795-.016-1.193a4.2 4.2 0 0 0-.61-1.28c-.581-.829-1.544-1.59-2.845-1.646-1.347-.056-2.353.799-2.973 1.706a5.6 5.6 0 0 0-.695 1.416c-.143.446-.219.902-.169 1.267a.5.5 0 0 0 .766.352c.4-.256.819-.607 1.207-.931.176-.148.347-.29.505-.415.562-.444 1-.697 1.363-.715.344-.017.742.18 1.244.556.18.134.353.276.534.424l.195.159c.244.197.504.399.766.557a.5.5 0 0 0 .728-.257" />
  <path d="M26.613 22.442c-.13-.358-.09-.795.017-1.193.112-.416.319-.863.61-1.28.58-.829 1.544-1.59 2.845-1.646 1.346-.056 2.353.799 2.973 1.706.314.46.548.958.695 1.416.142.446.218.902.168 1.267a.5.5 0 0 1-.765.352c-.4-.256-.82-.607-1.207-.931-.177-.148-.347-.29-.505-.415-.563-.444-1-.697-1.363-.715-.344-.017-.743.18-1.244.556-.18.134-.354.276-.534.424l-.196.159c-.244.197-.503.399-.765.557a.5.5 0 0 1-.729-.257" />
  <path
    fill-rule="evenodd"
    d="M41.853 26.315a17.95 17.95 0 0 1-5.336 10.62L36.5 37q-.28.243-.564.473A17.93 17.93 0 0 1 24 42a17.92 17.92 0 0 1-10.875-3.655q-.57-.4-1.125-.845l-.039-.118a17.97 17.97 0 0 1-5.792-10.904c-.902-.656-1.677-1.582-1.834-2.864-.194-1.59.612-3.345 2.434-5.296a1 1 0 0 1 .203-.168C9.4 11.08 16.107 6 24 6c7.984 0 14.754 5.198 17.11 12.395 1.771 1.92 2.554 3.65 2.362 5.219-.144 1.179-.812 2.057-1.62 2.701M14.308 36.732c6.38 4.468 14.025 4.323 20.332-.783l.081-.073c.41-1.665.6-2.88.567-4.037-.03-1.042-.242-2.131-.755-3.531-4.117-.863-7.348-1.296-10.54-1.308-3.17-.011-6.378.393-10.443 1.279-.449 1.487-.637 2.644-.633 3.752.005 1.217.242 2.494.777 4.21q.3.252.614.491m-3.316-3.412c-.18-1.622-.036-3.135.451-4.948a19 19 0 0 1-.913-.166c-.625-.13-1.37-.318-2.12-.588a15.9 15.9 0 0 0 2.582 5.702m24.524-6.848c-8.94-1.919-14.151-2.01-23.116.013l-.27-.034c-.296-.04-.713-.104-1.193-.204-.911-.189-1.989-.492-2.887-.956A16 16 0 0 1 8 24c0-8.837 7.164-16 16-16s16 7.163 16 16q0 .597-.043 1.183l-.012.007c-.933.52-2.1.855-3.075 1.057a17 17 0 0 1-1.353.225m1.138 1.852c.547 1.693.716 3.113.605 4.632a15.9 15.9 0 0 0 2.347-5.416c-.821.312-1.647.524-2.33.666q-.333.069-.622.118"
    clip-rule="evenodd"
  />
</svg>
